X:73
T:Jock Tamson's Hornpipe
C:Joe Buchanan's Scottish Tome - Page 247.1
I:247 1
R:Hornpipe
Z:Carl Allison
L:1/8
M:4/4
K:D
"A7"A>d | "D"f>gf>e "G"d>ed>B | "D"A2 F2 "A7"F2> E2 | "D"D>FA>d "Bm"g>fe>d | "D"c>d"E#"e>f "A7"e2 A>d |
"D"f>gf>e "G"d>ed>B | "D"A2 F2 "A7"F2> A2 | "D"F>Ad>f "Em"e>g"A7"c>e | "D"d2 d2 "D"d2 :|
Ad | "Em"g>fe>g "D"f>ed>f | "Em"e>d"G#"c>B "A7"A2 e>f | "Em"g>fe>g "D"f>ed>f | "E"e2 "E#"a2 "A7"a2 e>f |
"Em"g>fe>g "D"f>ed>f | "C#"e>dc>e "Bm"d>cB>A | "Em"B>dc>e "D"d>fe>g | "D"f2 "G"d2 "D"d2 :|

